src/pos-icons/peanut-off.svg

<svg height="24" viewBox="0 0 24 24" width="24" xmlns="http://www.w3.org/2000/svg"><path d="m15.9 10.12a5 5 0 0 0 -2.82-8 5.74 5.74 0 0 0 -1.08-.12 5 5 0 0 0 -4.32 2.5l8.7 8.68a4.35 4.35 0 0 0 -.34-.41 2 2 0 0 1 -.14-2.65m-2.9-3.12a1 1 0 1 1 1-1 1 1 0 0 1 -1 1m-6-.61-4.61-4.66-1.28 1.27 6.69 6.69c.1.15.2.31.31.43a2 2 0 0 1 -.11 2.6 5.5 5.5 0 0 0 2.81 9.15 5.42 5.42 0 0 0 1.19.13 5.5 5.5 0 0 0 5-3.14l3.87 3.87 1.27-1.27m-11.14-3.46a1 1 0 1 1 1-1 1 1 0 0 1 -1 1m3 1a1 1 0 1 1 1-1 1 1 0 0 1 -1 1m-1-3a1 1 0 0 1 -1-1 1 1 0 0 1 .35-.76l1.41 1.41a1 1 0 0 1 -.76.35z"/></svg>

<?xml version="1.0" encoding="UTF-8"?><!DOCTYPE svg PUBLIC "-//W3C//DTD SVG 1.1//EN" "http://www.w3.org/Graphics/SVG/1.1/DTD/svg11.dtd"><svg xmlns="http://www.w3.org/2000/svg" xmlns:xlink="http://www.w3.org/1999/xlink" version="1.1" id="mdi-peanut-off" width="24" height="24" viewBox="0 0 24 24"><path d="M15.9 10.12A5 5 0 0 0 13.08 2.12A5.74 5.74 0 0 0 12 2A5 5 0 0 0 7.68 4.5L16.38 13.18A4.35 4.35 0 0 0 16.04 12.77A2 2 0 0 1 15.9 10.12M13 7A1 1 0 1 1 14 6A1 1 0 0 1 13 7M7 6.39L2.39 1.73L1.11 3L7.8 9.69C7.9 9.84 8 10 8.11 10.12A2 2 0 0 1 8 12.72A5.5 5.5 0 0 0 10.81 21.87A5.42 5.42 0 0 0 12 22A5.5 5.5 0 0 0 17 18.86L20.87 22.73L22.14 21.46M11 18A1 1 0 1 1 12 17A1 1 0 0 1 11 18M14 19A1 1 0 1 1 15 18A1 1 0 0 1 14 19M13 16A1 1 0 0 1 12 15A1 1 0 0 1 12.35 14.24L13.76 15.65A1 1 0 0 1 13 16Z" /></svg>
